packages/web-icons/svgs/pc_unsupported.svg

<svg viewBox="0 0 49 48" xmlns="http://www.w3.org/2000/svg" class="ridi_icon"><path d="M39.7 30.2H21.4L14.1 36h5.1v5.9h-8.9v5.9h26.4v-5.9h-8.8V36h17.6V9.6l-5.9 4.7.1 15.9zM7.4 9.9h19.7L34.4 4H1.5v24.8l5.9-4.7V9.9zm41.1-7.6l-.9-1.1C46.8.1 45.2-.1 44.1.8L1.9 34.3c-1.1.8-1.3 2.4-.4 3.5l.9 1.1c.8 1.1 2.4 1.3 3.5.4L48.1 5.7c1-.8 1.2-2.4.4-3.4z"/></svg>

<?xml version="1.0" encoding="UTF-8"?>
<svg width="49px" height="48px" viewBox="0 0 49 48" version="1.1" xmlns="http://www.w3.org/2000/svg">
  <!-- Generator: Sketch 41.2 (35397) - http://www.bohemiancoding.com/sketch -->
  <title>pc_unsupported</title>
  <desc>Created with Sketch.</desc>
  <defs></defs>
  <g id="Page-1" stroke="none" stroke-width="1" fill="none" fill-rule="evenodd">
    <g id="pc_unsupported" fill="#000000">
      <g id="레이어_1">
        <path d="M39.7,30.2 L21.4,30.2 L14.1,36 L19.2,36 L19.2,41.9 L10.3,41.9 L10.3,47.8 L36.7,47.8 L36.7,41.9 L27.9,41.9 L27.9,36 L45.5,36 L45.5,9.6 L39.6,14.3 L39.7,30.2 L39.7,30.2 Z M7.4,9.9 L27.1,9.9 L34.4,4 L1.5,4 L1.5,28.8 L7.4,24.1 L7.4,9.9 Z M48.5,2.3 L47.6,1.2 C46.8,0.1 45.2,-0.1 44.1,0.8 L1.9,34.3 C0.8,35.1 0.6,36.7 1.5,37.8 L2.4,38.9 C3.2,40 4.8,40.2 5.9,39.3 L48.1,5.7 C49.1,4.9 49.3,3.3 48.5,2.3 L48.5,2.3 Z" id="Shape"></path>
      </g>
    </g>
  </g>
</svg>
